!!!COM: Emmanuel Chabrier
!!!CNT: 
!!!TXO: 
!!!OTL: "Chanson pour Jeanne (Romance)"
!!!LYR: Mende\s
!!!OPR: 
!!!OPS: Op. 
!!!ONM: No. 
!!!ENC: Emily Thomas
!!!YOR: CD Sheet Music French Art Songs, The Ultimate Collection
!!!YOR: CD Sheet Music, LLC 2003
!!!ODT: 1886/
!!NB: Vocal melody and text encoded.
**kern	**silbe
=1	=1
*clefG2	*
*k[f#c]	*
*M3/4	*
*MM[Andantino]	*
2.r	.
=2	=2
2.r	.
=3	=3
2.r	.
=4	=4
2.r	.
=5	=5
4r	.
8r	.
{8a	{Puis-
8b	-que
8cc#	les
=6	=6
4cc#	ro-
[8dd	-ses
16dd]	|
16r	.
12b	sont
12cc#	|
12dd	jo-
=7	=7
8b	-li-
8cc#	|
[8a	-es,
16a]}	|}
16r	.
{12b	{Et
12a	puis-
12c#	-que
=8	=8
4e	jean-
8d	-ne
4b	l'est
16a	aus-
16g#	|
=9	=9
2.a}	-si,}
=10	=10
4r	.
4r	.
{8a	{Tout
8a	fleu-
=11	=11
[2.a	-rit
=12	=12
4a]	|
8a	dans
8a	ce
8a	mon-
8a	-de-
=13	=13
[4a	-ci,
8a]}	|}
{8f#	{Et
8f#	c'est
8f#	la
=14	=14
4b	c5i-
4f#	-re
8b	des
8b	fo-
=15	=15
4cc#	-li-
4f#	-es
8cc#	Que
8cc#	de
=16	=16
8dd	meure
8f#	ail-
4f#	-leurs
12g#	son
12f#	|
12e	sou-
=17	=17
[4b	-ci,
8b]}	|}
{8a	{Puis-
8b	-que
8cc#	les
=18	=18
4cc#	ro-
[8dd	-ses
16dd]	|
16r	.
12b	sont
12cc#	|
12dd	jo-
=19	=19
8b	-li-
8cc#	|
[8a	-es,
16a]}	|}
16r	.
{12b	{Et
12a	puis-
12c#	-que
=20	=20
4e	Jean-
8d	-ne
4b	l'est
16a	aus-
16g#	|
=21	=21
[2.a	-si!
=22	=22
4a_	|
8a]}	|}
8r	.
4r	.
=23	=23
2.r	.
=24	=24
2.r	.
=25	=25
4r	.
4r	.
12r	.
{12a	{Puis-
12a	-que
=26	=26
12a	vous
12a	ga-
12a	zouil-
[4a	-lez,
8a]	|
8dd	me/-
=27	=27
8b	-san-
8cc#	|
[8a	-ges,
16a]}	|}
16r	.
12r	.
{12b	{Et
12c#	que
=28	=28
4e	Jean-
8d	-ne
8d	ga-
8b	-zouille
16a	aus-
16g#	|
=29	=29
2.a}	-si,}
=30	=30
*MM[Tranquillo]	*
4r	.
4r	.
8r	.
{8a	{Tout
=31	=31
2a	chan-
4a}	-te}
=32	=32
4r	.
{8a	{dans
8a	ce
8a	mon-
8a	-de-
=33	=33
[4a	-ci,
8a]}	|}
*MM[Animando poco]	*
8r	.
{8f#	{Et
8f#	les
=34	=34
8b	har-
8b	-pes
4b	sain-
8f#	-tes
8b	des
=35	=35
4cc#	an-
4f#	-ges
8cc#	Ne
8cc#	fe-
=36	=36
8dd	-ront
8f#	ja-
4f#	-mais
12g#	mon-
12f#	|
12e	-sou
=37	=37
[4b	-ci,
8b]}	|}
8r	.
*MM[a Tempo I]	*
12r	.
{12a	{Puis-
12a	-que
=38	=38
12a	vous
12a	ga-
12a	-zouil-
[4a	-lez,
8a]	|
8dd	me/
=39	=39
8b	-san-
8cc#	|
[8a	-ges,
16a]}	|}
16r	.
12r	.
{12b	{Et
12c#	que
=40	=40
4e	jea-
8d	-ne
8d	ga-
8b	-zouille
16a	aus-
16g#	|
=41	=41
[2.a	-si!
=42	=42
4a_	|
8a]}	|}
8r	.
4r	.
=43	=43
2.r	.
=44	=44
2.r	.
=45	=45
4r	.
4r	.
*MM[Pui lento]	*
{12a	{Puis-
12b-	-que
12ccn	la
=46	=46
*k[b-]	*
8cc	bel
8dd	'e
[8dd	fleur
16dd]}	|}
16r	.
8r	.
{8dd	{est
=47	=47
8b	mor-
8cc	|
[8a	-te,
16a]	|
16r	.
12b-	Mor-
12a	-te
12c#	l'oi-
=48	=48
8e	-sel-
8d	-le,
8r	.
8d	et
8b-	Jeanne
16a	aus-
16g#	|
=49	=49
2.a}	-si.}
=50	=50
2.r	.
=51	=51
4r	.
4r	.
{8a	{Rein
8b-	ne
=52	=52
2.a}	vit}
=53	=53
4r	.
{8b-	{dans
8ccq	ce
8b-	|
8a	mon-
8b-	-de-
=54	=54
[4a	-ci!
8a]}	|}
8r	.
{8fn	{Et
8fn	j'at-
=55	=55
8b-	-tends
8b-	qu'un
4b-	souf-
8f	-fle
8b-	m'em
=56	=56
4cc	-por-
4f}	-te}
{8cc	{Dans
8cc	la
=57	=57
4dd	tom-
8f	-be,
8g	mon
8f	seul
8e	sou-
=58	=58
[8e	ciÖ
16e]}	|}
16r	.
4r	.
4r	.
=59	=59
4r	.
4r	.
{12a	{Puis-
12b-	-que
12ccn	la
=60	=60
8cc	bel-
8dd	-le
[8dd	fleur
16dd]}	|}
16r	.
8r	.
{8dd	{est
=61	=61
8b-	mor-
8cc	|
[8a	te,
16a]	|
16r	.
12a	Mor-
12b-	-te
12cc	l'oi-
=62	=62
8a	-sel-
8a}	-le,}
8r	.
{8d	{et
8d	Jeanne
8d	aus-
=63	63
2.d}	-si!Ö}
==	==
*-	*-
